res/skins/Tango/knobs_sliders/slider_volume_v_scale.svg

<svg xmlns="http://www.w3.org/2000/svg" width="36" height="103"><defs><linearGradient id="b"><stop offset="0" stop-color="#b4b4b4"/><stop offset="1" stop-color="#6a6a6a"/></linearGradient><linearGradient id="a"><stop offset="0" stop-color="#d1d1d1"/><stop offset="1" stop-color="#878787"/></linearGradient><linearGradient id="c"><stop offset="0" stop-color="#b4b4b4"/><stop offset="1" stop-color="#7a7a7a"/></linearGradient></defs><path d="M6 2v2h8.5C15.880712 4 17 5.11929 17 6.5v17c0 1.380712-1.141559 2.253011-2.5 2.5H9v2h5.5c1.380712 0 2.5 1.119288 2.5 2.5v17c0 1.380712-1.152167 2.200482-2.5 2.5H10v2h4.5c1.380712 0 2.5 1.119288 2.5 2.5v19c0 1.380712-1.172412 2.120689-2.5 2.5H11v2h3.5c1.380712 0 2.5 1.119288 2.5 2.5v16.125c-.06597 1.321849-1.386526 1.632684-2.5 2.375H13v2h10v-2h-1.5c-1.338229 0-2.434027-1.053151-2.5-2.375V80.5c0-1.380712 1.119288-2.5 2.5-2.5H25v-2h-3.5c-1.380712 0-2.5-1.119288-2.5-2.5v-19c0-1.380712 1.119288-2.5 2.5-2.5H26v-2h-4.5c-1.380712 0-2.5-1.119288-2.5-2.5v-17c0-1.380712 1.119288-2.5 2.5-2.5H27v-2h-5.5c-1.380712 0-2.5-1.119288-2.5-2.5v-17c0-1.38071 1.128745-2.3386759 2.5-2.5H30V2H17z"/></svg>

<?xml version="1.0" encoding="UTF-8" standalone="no"?>
<!-- Created with Inkscape (http://www.inkscape.org/) -->

<svg
   xmlns:dc="http://purl.org/dc/elements/1.1/"
   xmlns:cc="http://creativecommons.org/ns#"
   xmlns:rdf="http://www.w3.org/1999/02/22-rdf-syntax-ns#"
   xmlns:svg="http://www.w3.org/2000/svg"
   xmlns="http://www.w3.org/2000/svg"
   xmlns:xlink="http://www.w3.org/1999/xlink"
   version="1.1"
   width="36"
   height="103"
   id="svg4451">
  <metadata
     id="metadata4457">
    <rdf:RDF>
      <cc:Work
         rdf:about="">
        <dc:format>image/svg+xml</dc:format>
        <dc:type
           rdf:resource="http://purl.org/dc/dcmitype/StillImage" />
        <dc:title></dc:title>
      </cc:Work>
    </rdf:RDF>
  </metadata>
  <defs
     id="defs4455">
    <linearGradient
       id="linearGradient3775">
      <stop
         id="stop3777"
         style="stop-color:#0e0000;stop-opacity:1"
         offset="0" />
      <stop
         id="stop3779"
         style="stop-color:#7c0000;stop-opacity:0"
         offset="1" />
    </linearGradient>
    <linearGradient
       id="linearGradient3861">
      <stop
         id="stop3863"
         style="stop-color:#b4b4b4;stop-opacity:1"
         offset="0" />
      <stop
         id="stop3865"
         style="stop-color:#6a6a6a;stop-opacity:1"
         offset="1" />
    </linearGradient>
    <linearGradient
       id="linearGradient3765">
      <stop
         id="stop3767"
         style="stop-color:#d1d1d1;stop-opacity:1"
         offset="0" />
      <stop
         id="stop3769"
         style="stop-color:#878787;stop-opacity:1"
         offset="1" />
    </linearGradient>
    <linearGradient
       id="linearGradient3756">
      <stop
         id="stop3758"
         style="stop-color:#acacac;stop-opacity:1"
         offset="0" />
      <stop
         id="stop3760"
         style="stop-color:#acacac;stop-opacity:0"
         offset="1" />
    </linearGradient>
    <linearGradient
       x1="20.097458"
       y1="1.9632759"
       x2="20.097458"
       y2="100.81083"
       id="linearGradient3791"
       xlink:href="#linearGradient3765"
       gradientUnits="userSpaceOnUse" />
    <linearGradient
       x1="26.282167"
       y1="2.7318561"
       x2="26.282167"
       y2="101.18481"
       id="linearGradient3867"
       xlink:href="#linearGradient3861"
       gradientUnits="userSpaceOnUse" />
    <linearGradient
       x1="26.282167"
       y1="2.7318561"
       x2="26.282167"
       y2="101.18481"
       id="linearGradient3867-7"
       xlink:href="#linearGradient3861-9"
       gradientUnits="userSpaceOnUse" />
    <linearGradient
       id="linearGradient3861-9">
      <stop
         id="stop3863-4"
         style="stop-color:#b4b4b4;stop-opacity:1"
         offset="0" />
      <stop
         id="stop3865-0"
         style="stop-color:#7a7a7a;stop-opacity:1"
         offset="1" />
    </linearGradient>
    <linearGradient
       x1="26.282167"
       y1="2.7318561"
       x2="26.282167"
       y2="101.18481"
       id="linearGradient3940"
       xlink:href="#linearGradient3861"
       gradientUnits="userSpaceOnUse" />
    <linearGradient
       x1="26.282167"
       y1="2.7318561"
       x2="26.282167"
       y2="101.18481"
       id="linearGradient3968"
       xlink:href="#linearGradient3861"
       gradientUnits="userSpaceOnUse" />
    <linearGradient
       x1="26.282167"
       y1="2.7318561"
       x2="26.282167"
       y2="101.18481"
       id="linearGradient3971"
       xlink:href="#linearGradient3861"
       gradientUnits="userSpaceOnUse" />
    <linearGradient
       x1="26.282167"
       y1="2.7318561"
       x2="26.282167"
       y2="101.18481"
       id="linearGradient3978"
       xlink:href="#linearGradient3861"
       gradientUnits="userSpaceOnUse"
       gradientTransform="translate(-0.5,0)" />
    <linearGradient
       x1="26.282167"
       y1="2.7318561"
       x2="26.282167"
       y2="101.18481"
       id="linearGradient4002"
       xlink:href="#linearGradient3861"
       gradientUnits="userSpaceOnUse"
       gradientTransform="translate(-0.5,0)" />
  </defs>
  <g
     id="layer1"
     style="display:inline">
    <path
       d="m 6,2 0,2 8.5,0 C 15.880712,4 17,5.11929 17,6.5 l 0,17 c 0,1.380712 -1.141559,2.253011 -2.5,2.5 l -5.5,0 0,2 5.5,0 c 1.380712,0 2.5,1.119288 2.5,2.5 l 0,17 c 0,1.380712 -1.152167,2.200482 -2.5,2.5 l -4.5,0 0,2 4.5,0 c 1.380712,0 2.5,1.119288 2.5,2.5 l 0,19 c 0,1.380712 -1.172412,2.120689 -2.5,2.5 l -3.5,0 0,2 3.5,0 c 1.380712,0 2.5,1.119288 2.5,2.5 l 0,16.125 C 16.93403,97.946849 15.613474,98.257684 14.5,99 l -1.5,0 0,2 10,0 0,-2 -1.5,0 C 20.161771,99 19.065973,97.946849 19,96.625 l 0,-0.125 0,-16 C 19,79.119288 20.119288,78 21.5,78 l 3.5,0 0,-2 -3.5,0 C 20.119288,76 19,74.880712 19,73.5 l 0,-19 C 19,53.119288 20.119288,52 21.5,52 l 4.5,0 0,-2 -4.5,0 C 20.119288,50 19,48.880712 19,47.5 l 0,-17 C 19,29.119288 20.119288,28 21.5,28 l 5.5,0 0,-2 -5.5,0 C 20.119288,26 19,24.880712 19,23.5 l 0,-17 C 19,5.11929 20.128745,4.1613241 21.5,4 L 30,4 30,2 19,2 17,2 z"
       id="path3028-6"
       style="fill:#000000;fill-opacity:1;fill-rule:nonzero;stroke:none;display:inline" />
  </g>
</svg>
